X:1
T:Title
%%score [ ( 1 2 ) ( 3 4 ) ]
L:1/8
Q:1/4=100
M:4/4
K:F
V:1 treble nm="Midi_20"
V:2 treble 
V:3 bass nm="Midi_20"
V:4 bass 
V:1
"^Our day of praise is done""^Charles Steggall\n(1826-1905)""^John Ellerton\n(1826-93)""^Day of praise (S.M.)" c2 | %1
 A2 F2 D2 G2 | E6 F2 | DE F2 B2 AG | A6 || A2 | A3 G F2 A2 | d2 B2 G2 c2 | FG A2 G2 G2 | F6 |] %10
V:2
 E2 | F2 C2 B,2 D2 | C6 C2 | B,2 C2 D2 E2 | F6 || D2 | ^C2 DE F2 E2 | D2 G2 E2 F2 | D2 F2 F2 E2 | %9
 F6 |] %10
V:3
"^1. Our day of praise is done;\nThe evening shadows fall;\nBut pass not from us with the sun,\nTrue light, that lightenest all!\n\n2. Around the throne on high,\nWhere night can never be,\nThe white-robed harpers of the sky\nBring endless hymns to thee.\n\n3. Too faint our anthems here;\nToo soon of praise we tire;\nBut O the strains, how full and clear,\nOf that eternal choir!\n" C2 | %1
 C2 A,2 F,2 B,2 | G,6 A,2 | F,2 A,2 D2 C2 | C6 || %5
"^4. Yet, Lord, to thy dear will\nIf thou wilt tune the heart,\nWe in thine angels' music still\nMay hear our lower part.\n\n5. 'Tis thine each soul to calm,\nEach wayward thought reclaim,\nAnd make our life a daily psalm\nOf glory to thy name.\n\n6. A little while, and then\nShall come the glorious end,\nAnd songs of angels and of men\nIn perfect praise shall blend." F,2 | %6
 A,2 A,2 A,2 A,2 | B,2 D2 C2 C2 | A,2 C2 C3 B, | A,6 |] %10
V:4
 C,2 | F,2 A,,2 B,,2 G,,2 | C,6 A,,2 | B,,2 A,,2 G,,2 C,2 | F,,6 || D,2 | A,,2 =B,,^C, D,2 =C,2 | %7
 B,,2 G,,2 C,2 A,,2 | D,2 A,,B,, C,2 C,2 | F,6 |] %10

